; generated by PrusaSlicer 2.6.0+win64 on 2023-07-16 at 06:29:13 UTC


;
;
; 

; external perimeters extrusion width = 0.45mm
; perimeters extrusion width = 0.45mm
; infill extrusion width = 0.45mm
; solid infill extrusion width = 0.45mm
; top infill extrusion width = 0.40mm
; first layer extrusion width = 0.42mm

M73 P0 R4
M73 Q0 S4
M201 X1000 Y1000 Z200 E5000 ; sets maximum accelerations, mm/sec^2
M203 X200 Y200 Z12 E120 ; sets maximum feedrates, mm / sec
M204 S1250 T1250 ; sets acceleration (S) and retract acceleration (R), mm/sec^2
M205 X8.00 Y8.00 Z0.40 E4.50 ; sets the jerk limits, mm/sec
M205 S0 T0 ; sets the minimum extruding and travel feed rate, mm/sec
;TYPE:Custom
M862.3 P "MK3S" ; printer model check
M862.1 P0.4 ; nozzle diameter check
M115 U3.12.2 ; tell printer latest fw version
G90 ; use absolute coordinates
M83 ; extruder relative mode
M104 S240 ; set extruder temp
M140 S50 ; set bed temp
M190 S50 ; wait for bed temp
M109 S240 ; wait for extruder temp
G28 W ; home all without mesh bed level
G80 ; mesh bed leveling

G1 Z0.2 F720
G1 Y-3 F1000 ; go outside print area
G92 E0
G1 X60 E9 F1000 ; intro line
G1 X100 E12.5 F1000 ; intro line

G92 E0
M221 S95

; Don't change E values below. Excessive value can damage the printer.
M907 E430 ; set extruder motor current
G21 ; set units to millimeters
G90 ; use absolute coordinates
M83 ; use relative distances for extrusion
M900 K0 ; Filament gcode
M107
;LAYER_CHANGE
;Z:0.2
;HEIGHT:0.2
;BEFORE_LAYER_CHANGE
G92 E0.0
;0.2


M73 P1 R4
M73 Q1 S4
G1 Z.2 F720
;AFTER_LAYER_CHANGE
;0.2
M73 P2 R4
M73 Q2 S4
G1 X109.263 Y90.849 F10800
M204 S800
;TYPE:Skirt/Brim
;WIDTH:0.42
G1 F954.706
G1 X109.382 Y90.706 E.00671
G1 X110.649 Y89.424 E.06499
G1 X112.496 Y87.906 E.0862
G1 X113.66 Y87.112 E.05081
G1 X115.748 Y85.948 E.0862
G1 X118.088 Y84.979 E.09132
G1 X119.435 Y84.564 E.05082
G1 X121.774 Y84.067 E.08622
G1 X123.173 Y83.899 E.05081
G1 X125.705 Y83.831 E.09133
G1 X128.086 Y84.046 E.0862
G1 X129.472 Y84.297 E.05079
M73 Q3 S4
G1 X131.777 Y84.933 E.08622
G1 X134.124 Y85.886 E.09134
M73 P3 R4
G1 X135.375 Y86.535 E.05082
G1 X137.389 Y87.822 E.08618
G1 X139.139 Y89.239 E.08119
G1 X140.355 Y90.413 E.06095
G1 X141.901 Y92.237 E.08621
G1 X142.712 Y93.389 E.0508
G1 X143.908 Y95.46 E.08623
G1 X144.911 Y97.786 E.09133
G1 X145.346 Y99.126 E.0508
G1 X145.878 Y101.457 E.08621
G1 X146.067 Y102.853 E.0508
G1 X146.173 Y105.384 E.09134
G1 X145.994 Y107.768 E.0862
G1 X145.763 Y109.158 E.05081
G1 X145.162 Y111.472 E.08621
G1 X144.244 Y113.833 E.09134
G1 X143.614 Y115.093 E.05079
G1 X142.357 Y117.127 E.08622
G1 X141.512 Y118.254 E.05079
M73 Q4 S4
G1 X139.811 Y120.131 E.09134
G1 X138.01 Y121.704 E.08622
G1 X135.922 Y123.138 E.09133
M73 P4 R4
G1 X134.691 Y123.824 E.05081
G1 X132.507 Y124.797 E.08621
G1 X131.174 Y125.252 E.05079
G1 X128.711 Y125.844 E.09134
G1 X126.337 Y126.13 E.08622
G1 X123.805 Y126.138 E.0913
G1 X122.401 Y126.012 E.05083
G1 X120.049 Y125.585 E.08619
G1 X117.892 Y124.937 E.08121
G1 X116.322 Y124.312 E.06093
G1 X114.2 Y123.211 E.0862
G1 X113.012 Y122.452 E.05083
G1 X111.121 Y120.99 E.08619
G1 X109.311 Y119.218 E.09133
G1 X108.4 Y118.143 E.05081
G1 X106.949 Y116.067 E.09133
G1 X105.816 Y113.962 E.0862
G1 X105.015 Y111.978 E.07715
G1 X104.487 Y110.255 E.06498
M73 Q5 S4
G1 X104.025 Y107.909 E.08622
G1 X103.832 Y105.496 E.08728
M73 P5 R4
G1 X103.849 Y103.975 E.05485
G1 X104.098 Y101.597 E.08621
G1 X104.625 Y99.235 E.08726
G1 X105.089 Y97.786 E.05486
G1 X106.029 Y95.587 E.08623
G1 X106.697 Y94.346 E.05082
G1 X108.014 Y92.351 E.0862
G1 X109.224 Y90.895 E.06826
M204 S1000
; printing object Waterproof O-Ring.stl id:0 copy 0
G1 X134.472 Y120.735 F10800
M204 S800
;TYPE:External perimeter
;WIDTH:0.50083
G1 F786.181
G1 X134.125 Y120.94 E.01765
;WIDTH:0.503219
G1 F782.1
G1 X133.466 Y121.307 E.0332
G1 X132.549 Y121.749 E.04481
;WIDTH:0.502511
G1 F783.305
G1 X132.469 Y121.787 E.00389
;WIDTH:0.503725
G1 F781.242
G1 X131.451 Y122.203 E.04846
G1 X130.41 Y122.558 E.04846
;WIDTH:0.503164
G1 F782.194
G1 X129.35 Y122.85 E.04839
;WIDTH:0.502574
G1 F783.198
G1 X128.282 Y123.078 E.048
;WIDTH:0.503782
G1 F781.145
G1 X127.061 Y123.254 E.05436
;WIDTH:0.500631
G1 F786.522
G1 X126.099 Y123.341 E.04228
G1 X125.021 Y123.374 E.0472
;WIDTH:0.499894
G1 F787.791
G1 X124.979 Y123.374 E.00184
;WIDTH:0.500639
G1 F786.509
G1 X123.845 Y123.336 E.04966
;WIDTH:0.503745
G1 F781.208
G1 X122.806 Y123.241 E.04597
G1 X121.725 Y123.079 E.04817
;WIDTH:0.502315
M73 Q6 S4
G1 F783.639
G1 X121.593 Y123.053 E.00591
;WIDTH:0.499095
G1 F789.171
G1 X120.487 Y122.807 E.04942
;WIDTH:0.501802
G1 F784.515
G1 X119.583 Y122.557 E.04116
;WIDTH:0.502078
G1 X118.502 Y122.185 E.05019
;WIDTH:0.501351
G1 F785.287
M73 P6 R4
G1 X117.901 Y121.939 E.02847
;WIDTH:0.50035
G1 F787.006
G1 X117.281 Y121.669 E.02958
;WIDTH:0.49845
G1 F790.288
G1 X116.266 Y121.16 E.04946
G1 X115.287 Y120.591 E.04932
;WIDTH:0.499973
G1 F787.655
G1 X114.492 Y120.068 E.04159
G1 X113.438 Y119.273 E.0577
;WIDTH:0.498247
G1 F790.641
G1 X112.58 Y118.533 E.04933
;WIDTH:0.499121
G1 F789.126
G1 X111.897 Y117.874 E.0414
G1 X111.129 Y117.043 E.04936
;WIDTH:0.504725
G1 F779.55
G1 X110.629 Y116.447 E.03435
G1 X110.297 Y116.011 E.0242
;WIDTH:0.506341
G1 F776.831
G1 X109.97 Y115.567 E.02444
G1 X109.646 Y115.084 E.02577
;WIDTH:0.498636
G1 F789.966
G1 X109.148 Y114.281 E.04118
;WIDTH:0.50414
G1 F780.539
G1 X108.815 Y113.698 E.02961
;WIDTH:0.506241
G1 F776.999
G1 X108.324 Y112.714 E.04872
G1 X107.892 Y111.703 E.04871
;WIDTH:0.506019
G1 F777.372
G1 X107.522 Y110.668 E.04867
;WIDTH:0.505071
G1 F778.966
G1 X107.357 Y110.116 E.02546
;WIDTH:0.507746
G1 F774.483
G1 X107.215 Y109.612 E.02327
G1 X106.969 Y108.541 E.04884
;WIDTH:0.505176
G1 F778.789
G1 X106.789 Y107.456 E.04861
;WIDTH:0.507067
G1 F775.616
G1 X106.676 Y106.363 E.04877
G1 X106.625 Y105.264 E.04883
;WIDTH:0.503965
G1 F780.835
G1 X106.642 Y104.165 E.04846
;WIDTH:0.506007
G1 F777.392
G1 X106.726 Y103.069 E.04868
G1 X106.871 Y101.986 E.04839
;WIDTH:0.502437
G1 F783.431
G1 X107.068 Y100.979 E.04509
;WIDTH:0.501816
G1 F784.491
G1 X107.085 Y100.9 E.00355
;WIDTH:0.504016
G1 F780.749
G1 X107.363 Y99.836 E.04849
G1 X107.698 Y98.803 E.04788
;WIDTH:0.503081
G1 F782.335
G1 X107.88 Y98.334 E.02214
;WIDTH:0.500367
G1 F786.976
G1 X108.131 Y97.706 E.02958
;WIDTH:0.502488
G1 F783.344
G1 X108.614 Y96.68 E.04983
;WIDTH:0.501468
G1 F785.087
G1 X109.084 Y95.807 E.04347
G1 X109.636 Y94.912 E.04611
;WIDTH:0.500902
M73 Q7 S4
G1 F786.057
G1 X109.662 Y94.871 E.00213
;WIDTH:0.504618
G1 F779.73
G1 X110.428 Y93.804 E.05799
;WIDTH:0.499889
G1 F787.8
G1 X111.023 Y93.065 E.04146
;WIDTH:0.50174
G1 F784.621
G1 X111.79 Y92.222 E.05
;WIDTH:0.499555
G1 F788.376
M73 P7 R4
G1 X112.741 Y91.312 E.05747
;WIDTH:0.499036
G1 F789.273
G1 X113.463 Y90.694 E.04145
G1 X114.369 Y90.01 E.04951
;WIDTH:0.498841
G1 X115.315 Y89.383 E.04948
;WIDTH:0.498646
G1 X116.297 Y88.815 E.04944
;WIDTH:0.498497
G1 F790.207
G1 X117.313 Y88.309 E.04945
;WIDTH:0.498394
G1 X118.356 Y87.867 E.04934
;WIDTH:0.504965
G1 F779.145
G1 X119.068 Y87.604 E.03354
G1 X119.608 Y87.434 E.02501
;WIDTH:0.507064
G1 F775.621
G1 X120.699 Y87.136 E.0502
;WIDTH:0.498961
G1 F789.403
G1 X121.629 Y86.937 E.04147
;WIDTH:0.497966
G1 F791.129
G1 X122.75 Y86.763 E.04936
;WIDTH:0.505882
G1 F777.602
G1 X123.36 Y86.694 E.02718
G1 X124.457 Y86.629 E.04865
G1 X125.556 Y86.629 E.04865
G1 X126.148 Y86.661 E.02625
;WIDTH:0.506007
G1 X126.654 Y86.695 E.02246
G1 X127.745 Y86.827 E.04866
;WIDTH:0.505784
G1 X128.827 Y87.023 E.04867
G1 X129.895 Y87.284 E.04866
;WIDTH:0.505675
G1 X130.945 Y87.608 E.04862
;WIDTH:0.505478
G1 F778.281
G1 X131.974 Y87.995 E.04863
;WIDTH:0.505158
G1 X132.979 Y88.442 E.04862
;WIDTH:0.504772
G1 F779.47
G1 X133.954 Y88.949 E.04853
;WIDTH:0.504355
G1 F780.175
G1 X134.898 Y89.513 E.04852
;WIDTH:0.503911
G1 X135.807 Y90.133 E.0485
;WIDTH:0.506446
G1 F776.655
G1 X136.675 Y90.807 E.04871
G1 X137.504 Y91.529 E.04873
;WIDTH:0.502349
G1 F783.581
G1 X138.288 Y92.301 E.04834
;WIDTH:0.505125
G1 F778.875
G1 X139.018 Y93.114 E.04829
G1 X139.685 Y93.946 E.04713
;WIDTH:0.500588
G1 F786.596
G1 X139.705 Y93.972 E.00144
;WIDTH:0.500847
G1 X140.363 Y94.911 E.05021
;WIDTH:0.501467
G1 F785.089
M73 Q8 S4
G1 X140.955 Y95.878 E.04972
;WIDTH:0.502144
G1 F783.931
G1 X141.487 Y96.881 E.04986
;WIDTH:0.502015
G1 F784.151
G1 X141.899 Y97.773 E.04313
;WIDTH:0.503841
G1 F781.045
G1 X142.36 Y98.975 E.05674
;WIDTH:0.500835
G1 F786.172
M73 P8 R4
G1 X142.65 Y99.878 E.04153
;WIDTH:0.501898
G1 F784.351
G1 X142.932 Y100.977 E.0498
;WIDTH:0.502435
G1 F783.435
G1 X143.145 Y102.093 E.04992
;WIDTH:0.500022
G1 F787.57
G1 X143.289 Y103.222 E.04975
;WIDTH:0.50637
G1 F776.783
G1 X143.357 Y104.179 E.04252
G1 X143.366 Y104.537 E.01587
;WIDTH:0.499203
G1 F788.984
G1 X143.367 Y105.487 E.04145
G1 X143.301 Y106.623 E.04965
;WIDTH:0.498998
G1 F789.339
G1 X143.136 Y107.929 E.05741
;WIDTH:0.498577
G1 F790.068
G1 X142.961 Y108.863 E.0414
G1 X142.688 Y109.964 E.04942
G1 X142.348 Y111.044 E.04933
;WIDTH:0.504552
G1 F779.842
G1 X142.106 Y111.71 E.03128
G1 X141.872 Y112.265 E.02659
;WIDTH:0.50666
G1 F776.297
G1 X141.67 Y112.726 E.02232
G1 X141.182 Y113.704 E.04847
;WIDTH:0.505236
G1 F778.688
G1 X140.934 Y114.139 E.02214
;WIDTH:0.50632
G1 F776.867
G1 X140.628 Y114.661 E.02681
G1 X140.338 Y115.108 E.02361
;WIDTH:0.507887
G1 F774.248
G1 X140.021 Y115.578 E.02521
G1 X139.367 Y116.453 E.04857
;WIDTH:0.504964
G1 F779.147
G1 X138.986 Y116.908 E.02622
;WIDTH:0.506203
G1 F777.063
G1 X138.651 Y117.296 E.02271
;WIDTH:0.507341
G1 F775.159
G1 X137.891 Y118.09 E.04881
G1 X137.086 Y118.839 E.04883
;WIDTH:0.505753
G1 F777.818
G1 X136.236 Y119.536 E.04865
G1 X135.346 Y120.182 E.04867
;WIDTH:0.505502
G1 F778.24
G1 X134.693 Y120.604 E.03439
;WIDTH:0.50083
G1 F786.181
G1 X134.524 Y120.704 E.0086
M204 S1000
G1 X142.751 Y107.375 F10800
M204 S800
;WIDTH:0.507335
G1 F775.169
G1 X142.576 Y108.461 E.04885
;WIDTH:0.505524
G1 F778.203
G1 X142.336 Y109.506 E.04743
;WIDTH:0.505823
G1 F777.701
G1 X142.035 Y110.534 E.04741
G1 X141.698 Y111.485 E.04466
;WIDTH:0.503359
M73 Q9 S4
G1 F781.862
G1 X141.455 Y112.081 E.02834
;WIDTH:0.498619
G1 F789.995
G1 X140.987 Y113.082 E.04815
G1 X140.55 Y113.895 E.04022
;WIDTH:0.50632
G1 F776.867
G1 X139.971 Y114.838 E.04903
;WIDTH:0.507887
G1 F774.248
M73 P9 R4
G1 X139.223 Y115.89 E.05739
;WIDTH:0.498883
G1 F789.538
G1 X138.643 Y116.609 E.04028
;WIDTH:0.498142
G1 F790.823
G1 X137.9 Y117.429 E.04817
;WIDTH:0.499363
G1 F788.707
G1 X136.971 Y118.326 E.05636
G1 X136.268 Y118.925 E.04031
;WIDTH:0.498346
G1 F790.469
G1 X135.387 Y119.594 E.04817
G1 X134.466 Y120.208 E.0482
;WIDTH:0.500885
G1 F786.086
G1 X133.343 Y120.852 E.05669
;WIDTH:0.503219
G1 F782.1
G1 X132.349 Y121.337 E.04868
;WIDTH:0.500958
G1 F785.961
G1 X131.499 Y121.694 E.04038
;WIDTH:0.498742
G1 F789.782
G1 X130.456 Y122.063 E.04822
;WIDTH:0.498896
G1 X129.392 Y122.368 E.04826
;WIDTH:0.499101
G1 X128.31 Y122.607 E.04834
;WIDTH:0.502321
G1 F783.629
G1 X128.207 Y122.624 E.00459
;WIDTH:0.503782
G1 F781.145
G1 X127.134 Y122.784 E.04781
G1 X126.114 Y122.882 E.04516
;WIDTH:0.500631
G1 F786.522
G1 X125.007 Y122.917 E.04848
;WIDTH:0.499893
G1 F787.793
G1 X124.993 Y122.917 E.00061
;WIDTH:0.500639
G1 F786.509
G1 X123.922 Y122.884 E.0469
G1 X122.98 Y122.799 E.0414
;WIDTH:0.503745
G1 F781.208
G1 X121.793 Y122.624 E.05287
;WIDTH:0.502575
G1 F783.196
G1 X120.747 Y122.401 E.04701
G1 X119.733 Y122.122 E.04623
;WIDTH:0.501796
G1 F784.526
G1 X119.721 Y122.119 E.00054
;WIDTH:0.502078
G1 X118.697 Y121.769 E.04751
G1 X118.082 Y121.519 E.02915
;WIDTH:0.500318
G1 F787.061
G1 X117.493 Y121.265 E.02805
;WIDTH:0.5047
G1 F779.592
G1 X116.744 Y120.894 E.03691
;WIDTH:0.505135
G1 F778.858
G1 X115.809 Y120.372 E.04733
G1 X114.904 Y119.796 E.04741
;WIDTH:0.506796
G1 F776.069
G1 X114.04 Y119.162 E.04754
G1 X113.213 Y118.484 E.04744
;WIDTH:0.505928
G1 F777.524
G1 X112.426 Y117.756 E.04747
;WIDTH:0.505597
G1 F778.081
G1 X111.686 Y116.979 E.04747
G1 X111.07 Y116.259 E.04192
;WIDTH:0.502626
M73 Q10 S4
G1 F783.109
G1 X110.673 Y115.753 E.02827
;WIDTH:0.506341
G1 F776.831
G1 X110.037 Y114.849 E.04898
;WIDTH:0.505204
G1 F778.742
G1 X109.55 Y114.066 E.04076
;WIDTH:0.503829
G1 F781.065
M73 P10 R4
G1 X108.935 Y112.928 E.05701
;WIDTH:0.498402
G1 F790.372
G1 X108.477 Y111.922 E.04814
G1 X108.08 Y110.888 E.04824
G1 X107.8 Y110.009 E.04018
;WIDTH:0.507746
G1 F774.483
G1 X107.483 Y108.759 E.05732
;WIDTH:0.498801
G1 F789.68
G1 X107.283 Y107.668 E.04835
G1 X107.17 Y106.752 E.04023
;WIDTH:0.49921
G1 F788.972
G1 X107.088 Y105.465 E.05627
;WIDTH:0.499426
G1 X107.093 Y104.356 E.04841
G1 X107.151 Y103.435 E.04028
;WIDTH:0.500034
G1 F787.55
G1 X107.308 Y102.155 E.05637
;WIDTH:0.502437
G1 F783.431
G1 X107.517 Y101.065 E.04877
;WIDTH:0.500413
G1 F786.897
G1 X107.744 Y100.171 E.04035
;WIDTH:0.499177
G1 F789.029
G1 X108.074 Y99.116 E.04823
;WIDTH:0.499908
G1 F787.767
G1 X108.303 Y98.507 E.02843
;WIDTH:0.501822
G1 F784.481
G1 X108.547 Y97.897 E.02883
;WIDTH:0.502488
G1 F783.344
G1 X108.977 Y96.976 E.04467
G1 X109.447 Y96.095 E.04388
;WIDTH:0.501468
G1 F785.087
G1 X110.026 Y95.151 E.04856
;WIDTH:0.500902
G1 F786.057
G1 X110.04 Y95.13 E.00111
;WIDTH:0.504618
G1 F779.73
G1 X110.669 Y94.246 E.0479
G1 X111.334 Y93.404 E.04737
;WIDTH:0.501118
G1 F785.687
G1 X111.363 Y93.37 E.00196
;WIDTH:0.50174
G1 F784.621
G1 X112.053 Y92.608 E.0451
;WIDTH:0.506031
G1 F777.351
G1 X112.82 Y91.862 E.04738
G1 X113.624 Y91.153 E.04747
;WIDTH:0.503448
G1 F781.711
G1 X114.473 Y90.498 E.04722
;WIDTH:0.503911
G1 F780.926
G1 X115.359 Y89.896 E.04722
;WIDTH:0.504356
G1 X116.28 Y89.347 E.04731
;WIDTH:0.504771
G1 F779.472
G1 X117.231 Y88.854 E.04731
;WIDTH:0.505158
G1 F778.82
G1 X118.21 Y88.419 E.04735
G1 X119.111 Y88.077 E.0426
;WIDTH:0.502959
G1 F782.542
G1 X119.724 Y87.876 E.02838
;WIDTH:0.507064
G1 F775.621
M73 Q11 S4
G1 X120.79 Y87.583 E.04907
;WIDTH:0.498974
G1 F789.38
G1 X121.691 Y87.388 E.0402
;WIDTH:0.505862
G1 F777.635
G1 X122.332 Y87.283 E.02875
G1 X123.894 Y87.114 E.06955
G1 X124.993 Y87.08 E.04867
M73 P11 R4
G1 X126.099 Y87.113 E.04898
;WIDTH:0.506007
G1 X127.202 Y87.215 E.04905
;WIDTH:0.497937
G1 F791.179
G1 X128.296 Y87.385 E.04817
;WIDTH:0.498076
G1 F790.938
G1 X129.377 Y87.622 E.04817
;WIDTH:0.498221
G1 X130.442 Y87.926 E.04822
G1 X131.486 Y88.294 E.04819
;WIDTH:0.498393
G1 X132.505 Y88.726 E.0482
;WIDTH:0.498497
G1 X133.496 Y89.221 E.04826
;WIDTH:0.498644
G1 F789.952
G1 X134.454 Y89.775 E.04823
;WIDTH:0.498835
G1 X135.377 Y90.388 E.0483
;WIDTH:0.49898
G1 X136.114 Y90.944 E.04026
;WIDTH:0.499299
G1 F788.818
G1 X137.098 Y91.777 E.05626
;WIDTH:0.49954
G1 X137.893 Y92.55 E.04842
G1 X138.515 Y93.233 E.04034
;WIDTH:0.505125
G1 F778.875
G1 X139.33 Y94.234 E.05705
;WIDTH:0.500572
G1 F786.624
G1 X139.338 Y94.245 E.0006
;WIDTH:0.500847
G1 X139.974 Y95.152 E.04851
;WIDTH:0.501467
G1 F785.089
G1 X140.553 Y96.096 E.04856
;WIDTH:0.502144
G1 F783.931
G1 X141.028 Y96.986 E.0443
G1 X141.454 Y97.899 E.04424
;WIDTH:0.502015
G1 F784.151
G1 X141.474 Y97.947 E.00228
;WIDTH:0.503841
G1 F781.045
G1 X141.868 Y98.958 E.04782
G1 X142.202 Y99.976 E.04722
;WIDTH:0.501317
G1 F785.345
G1 X142.207 Y99.994 E.00082
;WIDTH:0.501898
G1 F784.351
G1 X142.483 Y101.066 E.04858
;WIDTH:0.502435
G1 F783.435
G1 X142.677 Y102.067 E.0448
;WIDTH:0.502959
G1 F782.542
G1 X142.82 Y103.129 E.04714
;WIDTH:0.50637
G1 F776.783
G1 X142.894 Y104.196 E.0474
G1 X142.914 Y105.268 E.04752
;WIDTH:0.504398
G1 F780.102
G1 X142.864 Y106.339 E.04731
;WIDTH:0.507335
G1 F775.169
G1 X142.758 Y107.315 E.0436
M204 S1000
; stop printing object Waterproof O-Ring.stl id:0 copy 0
;LAYER_CHANGE
;Z:0.3
;HEIGHT:0.1
;BEFORE_LAYER_CHANGE
G92 E0.0
;0.3


G1 Z.3 F720
;AFTER_LAYER_CHANGE
;0.3
G1 X146.01 Y107.559 F10800
;TYPE:Skirt/Brim
;WIDTH:0.42
G1 F1806.595
M73 Q12 S4
G1 X145.994 Y107.768 E.00399
G1 X145.763 Y109.158 E.02685
G1 X145.162 Y111.472 E.04556
G1 X144.244 Y113.833 E.04827
G1 X143.614 Y115.093 E.02684
G1 X142.357 Y117.127 E.04556
M73 P12 R4
G1 X141.512 Y118.254 E.02684
G1 X139.811 Y120.131 E.04827
G1 X138.01 Y121.704 E.04556
G1 X135.922 Y123.138 E.04827
G1 X134.691 Y123.824 E.02685
G1 X132.507 Y124.797 E.04556
G1 X131.174 Y125.252 E.02684
